X:1
T:Title
%%score { 1 | ( 2 3 ) }
L:1/8
Q:1/4=100
M:4/4
K:G
V:1 treble nm="Grand Piano"
V:2 treble 
V:3 treble 
V:1
 B3 B dA c>B | B3 A G4 | G3 G GG[DG][DGB] | [DFA]6 z2 | B3 B dA c>B | B3 A [B,DG]2 [G,DF][G,CE] | %6
w: E.~T.~Coffin * * * * *||||||
 [G,B,D]3 [B,DG] [DGB]3 [CFA] | [B,G]8 | B3 B BB c>B | B3 A G4 | [FA]3 [FA] [GB][FA][GB][G^c] | %11
w: |||||
 [Fd]4 c4 | B3 B BB c>B | B3 A G2 FE | D G3 B3 c | A6 z2 | [Ec] [Ec]3- [Ec]2 z2 | %17
w: ||||||
 [DB] [DB]3- [DB]2 z2 | [CEA] [CEA]3 [A,E]3 [CDF] | [B,DG]4 z4 |] %20
w: |||
V:2
 [G,DG]3 [G,DG] [G,B,G][G,CG] [G,EG]>[G,DG] | [DG]3 [CD][K:bass] [G,B,D]4 | %2
 [G,B,D]3 [G,B,D] [G,B,D][D,B,D]B,,G,, | D,6 z2 | [G,DG]3 [G,DG] [G,B,G][G,CG] [G,EG]>[G,DG] | %5
 D4[K:bass] z4 | D,3 D, D,3 D, | G,,8 | [G,DG]3 [G,DG] [G,DG][G,DG] [G,EG]>[G,DG] | D4 z4 | %10
 [D,D]3 [D,D] [D,D][D,D][G,D][E,A,] | D,4- [D,DA]4 | [G,DG]3 [G,DG] [G,DG][G,DG] [G,EG]>[G,DG] | %13
 [DG]3 [CD][K:bass] [G,B,D]2 [C,G,D][C,G,C] | [D,G,B,] [B,D]3 [D,G,D]3 [D,A,D] | [D,F,D]6 z2 | %16
 [C,G,] [C,G,]3- [C,G,]2 z2 | G, G,3- G,2 z2 | C, C,3 C,3 D, | G,,4 z4 |] %20
V:3
 x8 | G,4[K:bass] z4 | x8 | x8 | x8 | [G,G]3- [G,CG][K:bass] G,2 C,C, | x8 | x8 | x8 | %9
 G,3- [G,C] [G,B,D]4 | x8 | A,4 z4 | x8 | G,4[K:bass] z4 | x8 | x8 | x8 | x8 | x8 | x8 |] %20

